svgs/sharp-regular/square.svg

<svg xmlns="http://www.w3.org/2000/svg" viewBox="0 0 448 512"><!--! Font Awesome Pro 6.6.0 by @fontawesome - https://fontawesome.com License - https://fontawesome.com/license (Commercial License) Copyright 2024 Fonticons, Inc. --><path d="M400 80l0 352L48 432 48 80l352 0zM48 32L0 32 0 80 0 432l0 48 48 0 352 0 48 0 0-48 0-352 0-48-48 0L48 32z"/></svg>

<svg xmlns="http://www.w3.org/2000/svg" viewBox="0 0 448 512"><!--! Font Awesome Pro 6.4.2 by @fontawesome - https://fontawesome.com License - https://fontawesome.com/license (Commercial License) Copyright 2023 Fonticons, Inc. --><path d="M400 80V432H48V80H400zM48 32H0V80 432v48H48 400h48V432 80 32H400 48z"/></svg>
